X:501
T:The Emblem of Faith
M:3/4
L:1/8
B:O'Neill's 501
N:"Slow" "collected by Dunlap"
Z:Transcribed by Dave Wooldridge
K:D
A2 A2 (de) | f2 A2 A2 | f2 gf ed | c2 B2 Bc |
d2 de fe | d2 cA GF | G2 c2 B2 | A4 ||
FG | A2 B2 AG | c2 BA GF | G3 B AG | F>E D2 FG |
A2 f2 e2 | d2 A2 F2 | GB AG FE | F2 D4 ||


